X:1
T:Title
%%score 1 { 2 | 3 }
L:1/8
Q:1/4=90
M:6/8
K:F
V:1 treble nm="Grand Piano, Soprano"
V:2 treble nm="Choir Pad, Cuckfield, 87.87 D"
V:3 bass 
V:1
 [Ac]>[GB][FA] [FA][CG][CF] | [DF]3 [DB]3 | [CA]>[CG][CF] [CF][CE][CF] | [EG]6 | %4
w: By~Frederick~S.~Stanton,~1888 * * * * *||||
 [Fc]>[EB][FA] [FA][CG][CF] | [DF]3 [DB]3 | [CA][CE][CF] [FA]>[FA][EG] | F6 | %8
w: ||||
 [DB]>[DB][DB] [DB][_Ec][Fd] | [Fc]3 [FA]3 | [EG][Ec][Ge] [Af]>[Ge][Fd] | [Ec]6 | %12
w: ||||
 [Fc]>[FB][FA] [CA][CG][CF] | [DF]3 [DB]3 | [CA][CE][CF] [FA][FA][EG] | F6- | F3 z3 |] %17
w: |||||
V:2
 C>CC CB,[K:bass]A, | B,3 F,3 | F,>B,A, A,B,[K:treble]C | C6 | A,>CC C[K:bass]B,A, | B,3 F,3 | %6
 F,B,A, C>CB, | A,6 | F,>F,F, F,F,B, | A,3[K:treble] C3 | CCC =B,>[K:bass]B,B, | C6 | %12
 A,>DC F,F,F, | F,3 F,3 | F,B,A, CCB, | A,6- | A,3 z3 |] %17
V:3
 F,>F,F, F,F,F, | B,,3 B,,3 | z z/ F,/F, F,,G,,A,, | C,6 | z z/ G,/G, G,F,F, | B,,3 B,,3 | %6
 C,C,C, C,>C,C, | F,6 | B,,>B,,B,, B,,B,,B,, | F,3 F,3 | G,G,G, G,>G,G, | C,6 | F,>F,F, F,,G,,A,, | %13
 B,,3 B,,3 | C,C,C, C,C,C, | [F,,F,]6- | [F,,F,]3 z3 |] %17

